X:1
T:Come, angels, seize your harps of gold
T:Come, angels, seize your harps of gold - Battersea New (Thomas Clark)
C:Thomas Clark
Z:p90, Peck’s Miscellaneous
Z:Collection of Sacred Music,
Z:vol. 2, ed. James Peck,
Z:London: (1809)
%%score [ 1 2 3 4 ]
L:1/8
M:4/4
K:C
V:1 treble nm="Soprano" snm="S."
V:2 treble nm="Alto" snm="A."
V:3 treble-8 transpose=-12 nm="Tenor" snm="T."
V:4 bass nm="Bass" snm="B."
V:1
 c2 | e2 c2 (G/F/E/F/ G)B | c2 d2 e2 z c | f3 e (ed)(dc) | B2 c2 d3 d | B2 A2 G3 G | c2 d2 e2 z A | %7
w: Come,|let us sing _ _ _ _ and|pray and praise, For|soon this war- * ring _|strife shall cease: When,|lost in love, o’er-|flow’d with God, With|
w: Come,|an- gels, seize _ _ _ _ your|harps of gold, The|song of love _ to _|man un- fold: As-|sist our joys, ex-|alt our praise; A-|
w: A|le- per wash’d _ _ _ _ from|ev- ’ry stain Re-|quires a high- * er, _|lou- der strain: The|Spi- rit stamp’d and|seal’d with- in; The|
 (^GE)(^FG) ((AB))(cd) | c2 B2 A4 | c2 G2 E2 G2 | (c/B/c/d/ e)c d2 z d | (dc)(BA) G3 G | %12
w: Christ _ we _ take _ our _|blest a- bode.|Hark, the trum- pet|speaks _ _ _ _ him nigh, Hark,|hark, _ he _ comes, while|
w: no- * ther _ sin- * ner _|sav’d by grace.|Glo- ry, glo- ry|let _ _ _ _ us sing, While|heav’n _ and _ earth with|
w: blood _ of _ Christ _ has _|cleans’d from sin.|Sa- tan feels his|pow’r _ _ _ _ is gone, He|falls _ like _ light- ning|
 (GA)(BG) c2 z d | egdc B2 A2 | G2 z B cc z e | dd z d gfef | e2 d2 c2 |] %17
w: myr- * iads _ cry, Ho\-|||||
w: prai- * ses _ ring, Ho\-|||||
w: from _ his _ throne! Ho-|san- na to the Lamb of|God, ho- san- na, ho-|san- na, ho- san- na to the|Lamb of God.|
V:2
 E2 | G2 G2 E3 G | G2 G2 G2 z G | F3 G A2 G2 | G2 G2 G3 G | D2 F2 C3 E | G2 G2 G2 z E | %7
w: Come,|let us sing and|pray and praise, For|soon this war- ring|strife shall cease: When,|lost in love, o’er-|flow’d with God, With|
w: Come,|an- gels, seize your|harps of gold, The|song of love to|man un- fold: As-|sist our joys, ex-|alt our praise; A-|
w: A|le- per wash’d from|ev- ’ry stain Re-|quires a high- er,|lou- der strain: The|Spi- rit stamp’d and|seal’d with- in; The|
 (EB,) D2 E2 (EF) | E2 E2 E4 | C2 D2 E2 D2 | (E>F G)G G2 z G | D2 G2 G3 E | D2 G2 G2 z G | %13
w: Christ _ we take our _|blest a- bode.|Hark, the trum- pet|speaks _ _ him nigh, Hark,|hark, he comes, while|myr- iads cry, Ho\-|
w: no- * ther sin- ner _|sav’d by grace.|Glo- ry, glo- ry|let _ _ us sing, While|heav’n and earth with|prai- ses ring, Ho\-|
w: blood _ of Christ has _|cleans’d from sin.|Sa- tan feels his|pow’r _ _ is gone, He|falls like light- ning|from his throne! Ho-|
 GEGA G2 ^F2 | G2 z G GG z G | GG z G GGGA | G2 F2 E2 |] %17
w: ||||
w: ||||
w: san- na to the Lamb of|God, ho- san- na, ho-|san- na, ho- san- na to the|Lamb of God.|
V:3
 G2 | c2 e2 c3 d | c2 B2 c2 z e | c3 B A2 (Bc) | f2 (ec) B3 B | G2 c2 c3 c | c2 B2 c2 z c | %7
w: Come,|let us sing and|pray and praise, For|soon this war- ring _|strife shall _ cease: When,|lost in love, o’er-|flow’d with God, With|
w: Come,|an- gels, seize your|harps of gold, The|song of love to _|man un- * fold: As-|sist our joys, ex-|alt our praise; A-|
w: A|le- per wash’d from|ev- ’ry stain Re-|quires a high- er, _|lou- der _ strain: The|Spi- rit stamp’d and|seal’d with- in; The|
 (B^G)(AB) (cd)(cB) | A2 ^G2 A4 | G2 B2 G2 G2 | G2 c2 B2 z B | (Bc) d2 e3 c | (Bc)(dB) c2 z B | %13
w: Christ _ we _ take _ our _|blest a- bode.|Hark, the trum- pet|speaks him nigh, Hark,|hark, _ he comes, while|myr- * iads _ cry, Ho\-|
w: no- * ther _ sin- * ner _|sav’d by grace.|Glo- ry, glo- ry|let us sing, While|heav’n _ and earth with|prai- * ses _ ring, Ho\-|
w: blood _ of _ Christ _ has _|cleans’d from sin.|Sa- tan feels his|pow’r is gone, He|falls _ like light- ning|from _ his _ throne! Ho-|
 ccde d2 c2 | B2 z d cc z c | BB z B cdcc | c2 B2 c2 |] %17
w: ||||
w: ||||
w: san- na to the Lamb of|God, ho- san- na, ho-|san- na, ho- san- na to the|Lamb of God.|
V:4
 C,2 | C,2 C,2 C,3 G, |"^6" E,2 G,2 C,2 z C, |"^6" A,3"^6" G,"^7""^6" F,2"^7""^6" E,2 | %4
w: Come,|let us sing and|pray and praise, For|soon this war- ring|
w: Come,|an- gels, seize your|harps of gold, The|song of love to|
w: A|le- per wash’d from|ev- ’ry stain Re-|quires a high- er,|
"^43" D,2 C,2 G,3 G, | G,2 F,2"^6" E,3 C, |"^6" E,2 G,2 C,2 z A, | %7
w: strife shall cease: When,|lost in love, o’er-|flow’d with God, With|
w: man un- fold: As-|sist our joys, ex-|alt our praise; A-|
w: lou- der strain: The|Spi- rit stamp’d and|seal’d with- in; The|
"^#" E,2"^5#""^6Ä" D,2"^6" (C,"^´43"B,,)(A,,"^6"D,) |"^64" E,2"^5#" E,2 A,,4 | %9
w: Christ we take _ our _|blest a- bode.|
w: no- ther sin- * ner _|sav’d by grace.|
w: blood of Christ _ has _|cleans’d from sin.|
"^6" E,2 G,2 C,2"^6" B,,2 | C,2 C,2 G,2 z G, | G,2 G,2 C3 C, | G,2"^42" F,2"^6" E,2 z G, | %13
w: Hark, the trum- pet|speaks him nigh, Hark,|hark, he comes, while|myr- iads cry, Ho\-|
w: Glo- ry, glo- ry|let us sing, While|heav’n and earth with|prai- ses ring, Ho\-|
w: Sa- tan feels his|pow’r is gone, He|falls like light- ning|from his throne! Ho-|
"^Notes: This setting is attributed in the source to ‘Mr. T. Clark’. It is marked at the top of the piece and in the index with anasterisk: a note below the index comments ‘The pieces marked * are copyright’.The parts are given in the order Tenor - Alto - Air - [Bass] in the source, with the Alto and Tenor parts notated in the trebleclef an octave above sounding pitch.Only the first verse of the text is underlaid in the source: the subsequent verses given here are printed after the music." CC"^6"B,"^6"C"^64" D2"^7#" D,2 | %14
w: |
w: |
w: san- na to the Lamb of|
 G,2 z"^42" F,"^6" E,E, z C, | G,G, z"^42" F,"^6" E,G,CF, |"^64" G,2"^7" G,,2 C,2 |] %17
w: |||
w: |||
w: God, ho- san- na, ho-|san- na, ho- san- na to the|Lamb of God.|

